src/assets/images/upload.svg

<svg fill="none" height="14" viewBox="0 0 14 14" width="14" xmlns="http://www.w3.org/2000/svg"><path d="m12.25 7h-1.75c-.64342 0-1.16667.52325-1.16667 1.16667 0 .64341-.52325 1.16666-1.16666 1.16666h-2.33334c-.64341 0-1.16666-.52325-1.16666-1.16666 0-.64342-.52325-1.16667-1.16667-1.16667h-1.75c-.964833 0-1.75.78517-1.75 1.75v2.3333c0 1.6083 1.30842 2.9167 2.91667 2.9167h8.16663c1.6083 0 2.9167-1.3084 2.9167-2.9167v-2.3333c0-.96483-.7852-1.75-1.75-1.75zm.5833 4.0833c0 .9649-.7851 1.75-1.75 1.75h-8.16663c-.96484 0-1.75-.7851-1.75-1.75v-2.3333c0-.322.26133-.58333.58333-.58333l1.75-.00117v.00117c0 1.28683 1.0465 2.33333 2.33333 2.33333h2.33334c1.28683 0 2.33333-1.0465 2.33333-2.33333h1.75c.322 0 .5833.26133.5833.58333zm-8.57905-7.99572c-.22808-.22808-.22808-.59675 0-.82483l1.92092-1.920917c.22516-.225166.52091-.338333.81666-.340083l.00817-.00175.00817.00175c.29633.00175.5915.114917.81666.340083l1.92092 1.920917c.22808.22808.22808.59675 0 .82483-.11375.11375-.26308.17092-.41242.17092-.14933 0-.29866-.05717-.41241-.17092l-1.33759-1.33758v4.08333c0 .32259-.26075.58334-.58333.58334s-.58333-.26075-.58333-.58334v-4.08333l-1.33759 1.33758c-.22808.22809-.59675.22809-.82483 0z" fill="#fff"/></svg>

<svg width="14" height="14" viewBox="0 0 14 14" fill="none" xmlns="http://www.w3.org/2000/svg">
<g clipPath="url(#clip0_1806_2736)">
<path d="M12.25 7H10.5C9.85658 7 9.33333 7.52325 9.33333 8.16667C9.33333 8.81008 8.81008 9.33333 8.16667 9.33333H5.83333C5.18992 9.33333 4.66667 8.81008 4.66667 8.16667C4.66667 7.52325 4.14342 7 3.5 7H1.75C0.785167 7 0 7.78517 0 8.75V11.0833C0 12.6916 1.30842 14 2.91667 14H11.0833C12.6916 14 14 12.6916 14 11.0833V8.75C14 7.78517 13.2148 7 12.25 7ZM12.8333 11.0833C12.8333 12.0482 12.0482 12.8333 11.0833 12.8333H2.91667C1.95183 12.8333 1.16667 12.0482 1.16667 11.0833V8.75C1.16667 8.428 1.428 8.16667 1.75 8.16667L3.5 8.1655V8.16667C3.5 9.4535 4.5465 10.5 5.83333 10.5H8.16667C9.4535 10.5 10.5 9.4535 10.5 8.16667H12.25C12.572 8.16667 12.8333 8.428 12.8333 8.75V11.0833ZM4.25425 3.08758C4.02617 2.8595 4.02617 2.49083 4.25425 2.26275L6.17517 0.341833C6.40033 0.116667 6.69608 0.0035 6.99183 0.00175L7 0L7.00817 0.00175C7.3045 0.0035 7.59967 0.116667 7.82483 0.341833L9.74575 2.26275C9.97383 2.49083 9.97383 2.8595 9.74575 3.08758C9.632 3.20133 9.48267 3.2585 9.33333 3.2585C9.184 3.2585 9.03467 3.20133 8.92092 3.08758L7.58333 1.75V5.83333C7.58333 6.15592 7.32258 6.41667 7 6.41667C6.67742 6.41667 6.41667 6.15592 6.41667 5.83333V1.75L5.07908 3.08758C4.851 3.31567 4.48233 3.31567 4.25425 3.08758Z" fill="white"/>
</g>
<defs>
<clipPath id="clip0_1806_2736">
<rect width="14" height="14" fill="white"/>
</clipPath>
</defs>
</svg>
